public/assets/site/user_input.svg

<svg xmlns="http://www.w3.org/2000/svg" width="32" height="32" viewBox="0 0 32 32"><path fill="#fff" d="M31.934 9.21h-31.868v-8.523h31.868v8.523zm-30.945-.923h30.021v-6.677h-30.021v6.677zm30.945 8.324h-25.58v-8.275h25.58v8.275zm-24.657-.924h23.733v-6.428h-23.733v6.428zm24.657 8.276h-25.58v-8.276h25.58v8.276zm-24.657-.924h23.733v-6.428h-23.733v6.428zm24.657 8.273h-25.58v-8.273h25.58v8.273zm-24.657-.921h23.733v-6.428h-23.733v6.428zm19.198-24.352l1.84-2.18h-3.679l1.839 2.18z"/></svg>

<?xml version="1.0" encoding="utf-8"?>
<!-- Generator: Adobe Illustrator 16.0.0, SVG Export Plug-In . SVG Version: 6.00 Build 0)  -->
<!DOCTYPE svg PUBLIC "-//W3C//DTD SVG 1.1//EN" "http://www.w3.org/Graphics/SVG/1.1/DTD/svg11.dtd">
<svg version="1.1" id="Layer_1" xmlns="http://www.w3.org/2000/svg" xmlns:xlink="http://www.w3.org/1999/xlink" x="0px" y="0px"
	 width="32px" height="32px" viewBox="0 0 32 32" enable-background="new 0 0 32 32" xml:space="preserve">
<path fill="#FFFFFF" d="M31.934,9.21H0.066V0.687h31.868V9.21L31.934,9.21z M0.989,8.287H31.01V1.61H0.989V8.287z M31.934,16.611
	H6.354V8.336h25.58V16.611z M7.277,15.687H31.01V9.259H7.277V15.687z M31.934,23.963H6.354v-8.276h25.58V23.963z M7.277,23.039
	H31.01v-6.428H7.277V23.039z M31.934,31.312H6.354v-8.273h25.58V31.312z M7.277,30.391H31.01v-6.428H7.277V30.391z M26.475,6.039
	l1.84-2.18h-3.679L26.475,6.039z"/>
</svg>
